X: 87
T: POLKA: John Walsh's or Monvara Bridge
T: Mountvara Bridge
C: C: John Walsh; S: Polca an Rí; John Walsh
C: Set Leaders: Anton, Sophie
Z: Anton Zille ed.; Bregolas at The Session
N: https://www.soundslice.com/slices/47PCc/
N: https://thesession.org/members/26966/sets/7124
R: Polka
M: 2/4
L: 1/8
Q: 1/4=140
K: Gmaj
|:GB B/c/B/A/|!segno!GB Bc/B/|AB cd|ed B>A|
GB B/c/B/A/|GB Bc/B/|AB cA|1 G2 GD:|2 G2 GB||
|:dg g/a/g/e/|dB Bc/B/|AB cd|ed B>c|
dg g/a/g/e/|dB Bc/B/|AB cA|G2 GB:||
|:dg ga/b/|ag g2|e/f/g ed|dB B>c|
dg g>a|bg gd|e/f/g ed|g2 g/a/g/e/!coda!:||dB B/c/B/A/!D.S.!||

